papirus/48x48/apps/kodi.svg

<?xml version="1.0" encoding="UTF-8" standalone="no"?>
<!-- Created with Inkscape (http://www.inkscape.org/) -->

<svg
   xmlns:dc="http://purl.org/dc/elements/1.1/"
   xmlns:cc="http://creativecommons.org/ns#"
   xmlns:rdf="http://www.w3.org/1999/02/22-rdf-syntax-ns#"
   xmlns:svg="http://www.w3.org/2000/svg"
   xmlns="http://www.w3.org/2000/svg"
   xmlns:sodipodi="http://sodipodi.sourceforge.net/DTD/sodipodi-0.dtd"
   xmlns:inkscape="http://www.inkscape.org/namespaces/inkscape"
   id="svg4163"
   height="48"
   width="48"
   version="1.1"
   viewBox="0 0 48.000001 48.000001"
   inkscape:version="0.91 r13725"
   sodipodi:docname="kodi.svg">
  <defs
     id="defs10" />
  <sodipodi:namedview
     pagecolor="#737373"
     bordercolor="#666666"
     borderopacity="1"
     objecttolerance="10"
     gridtolerance="10"
     guidetolerance="10"
     inkscape:pageopacity="0"
     inkscape:pageshadow="2"
     inkscape:window-width="1600"
     inkscape:window-height="849"
     id="namedview8"
     showgrid="false"
     inkscape:zoom="1"
     inkscape:cx="13.009944"
     inkscape:cy="24.899885"
     inkscape:window-x="0"
     inkscape:window-y="0"
     inkscape:window-maximized="1"
     inkscape:current-layer="svg4163" />
  <metadata
     id="metadata4168">
    <rdf:RDF>
      <cc:Work
         rdf:about="">
        <dc:format>image/svg+xml</dc:format>
        <dc:type
           rdf:resource="http://purl.org/dc/dcmitype/StillImage" />
        <dc:title></dc:title>
      </cc:Work>
    </rdf:RDF>
  </metadata>
  <rect
     style="opacity:1;fill:#ffffff;fill-opacity:1;stroke:none;stroke-width:4;stroke-linecap:round;stroke-linejoin:round;stroke-miterlimit:4;stroke-dasharray:none;stroke-opacity:1"
     id="rect4138"
     width="28.94772"
     height="28.94772"
     x="19.467266"
     y="-14.473859"
     rx="1.091383"
     ry="1.1832502"
     transform="matrix(0.7071068,0.70710677,-0.7071068,0.70710677,0,0)" />
  <path
     style="color:#000000;text-indent:0;text-decoration:none;text-decoration-line:none;text-decoration-style:solid;text-decoration-color:#000000;text-transform:none;block-progression:tb;white-space:normal;isolation:auto;mix-blend-mode:normal;solid-color:#000000;fill:#31afe1;color-rendering:auto;image-rendering:auto;shape-rendering:auto"
     d="M 23.980469 4 C 23.689749 4.0117415 23.395824 4.1354262 23.164062 4.3671875 L 17 10.53125 L 17 27.464844 L 32.466797 11.998047 L 24.771484 4.3027344 C 24.558198 4.0894476 24.272467 3.9887848 23.982422 4 A 1.8185123 1.8183481 0 0 0 23.980469 4 z M 12 15.53125 L 4.3671875 23.164062 C 4.1375395 23.39371 4.0156001 23.684512 4.0019531 23.972656 A 1.8185123 1.8183481 0 0 0 4.0019531 23.988281 C 3.9923846 24.276194 4.0909651 24.559715 4.3027344 24.771484 L 11.998047 32.466797 L 12 32.466797 L 12 15.53125 z M 36.001953 15.533203 L 27.652344 23.882812 L 36.119141 32.349609 L 43.632812 24.835938 C 43.86246 24.60629 43.9844 24.315488 43.998047 24.027344 A 1.8185123 1.8183481 0 0 0 43.998047 24.011719 C 44.007615 23.723806 43.909035 23.440285 43.697266 23.228516 L 36.001953 15.533203 z M 24.117188 27.417969 L 15.533203 36.001953 L 23.228516 43.697266 C 23.441802 43.910552 23.727533 44.011215 24.017578 44 A 1.8185123 1.8183481 0 0 0 24.019531 44 C 24.310251 43.988258 24.604176 43.864574 24.835938 43.632812 L 32.583984 35.884766 L 24.117188 27.417969 z "
     id="rect4762" />
  <path
     style="opacity:0.2;fill:#ffffff;fill-opacity:1;stroke:none;stroke-width:4;stroke-linecap:round;stroke-linejoin:round;stroke-miterlimit:4;stroke-dasharray:none;stroke-opacity:1"
     d="M 23.980469 4 C 23.689749 4.0117415 23.395824 4.135426 23.164062 4.3671875 L 4.3671875 23.164062 C 3.9873439 23.543906 3.9169433 24.084276 4.1328125 24.505859 C 4.1925541 24.384591 4.2648228 24.266427 4.3671875 24.164062 L 23.164062 5.3671875 C 23.627586 4.9036644 24.343949 4.8751991 24.771484 5.3027344 L 43.697266 24.228516 C 43.774448 24.305698 43.819632 24.401266 43.867188 24.494141 C 44.077965 24.066289 44.030384 23.561634 43.697266 23.228516 L 24.771484 4.3027344 C 24.557717 4.0889667 24.271189 3.9882585 23.980469 4 z "
     id="rect4149" />
  <path
     style="opacity:0.3;fill:#000000;fill-opacity:1;stroke:none;stroke-width:4;stroke-linecap:round;stroke-linejoin:round;stroke-miterlimit:4;stroke-dasharray:none;stroke-opacity:1"
     d="M 43.867188 23.494141 C 43.807446 23.615409 43.735177 23.733573 43.632812 23.835938 L 24.835938 42.632812 C 24.372414 43.096336 23.656051 43.124801 23.228516 42.697266 L 4.3027344 23.771484 C 4.2255518 23.694302 4.1803684 23.598734 4.1328125 23.505859 C 3.9220348 23.933711 3.9696162 24.438366 4.3027344 24.771484 L 23.228516 43.697266 C 23.656051 44.124801 24.372414 44.096336 24.835938 43.632812 L 43.632812 24.835938 C 44.012656 24.456094 44.083057 23.915724 43.867188 23.494141 z "
     id="rect4159" />
</svg>

<?xml version="1.0" encoding="UTF-8" standalone="no"?>
<svg id="svg4163" xmlns:rdf="http://www.w3.org/1999/02/22-rdf-syntax-ns#" xmlns="http://www.w3.org/2000/svg" height="48" width="48" version="1.1" xmlns:cc="http://creativecommons.org/ns#" viewBox="0 0 48.000001 48.000001" xmlns:dc="http://purl.org/dc/elements/1.1/">
 <metadata id="metadata4168">
  <rdf:RDF>
   <cc:Work rdf:about="">
    <dc:format>image/svg+xml</dc:format>
    <dc:type rdf:resource="http://purl.org/dc/dcmitype/StillImage"/>
    <dc:title/>
   </cc:Work>
  </rdf:RDF>
 </metadata>
 <rect id="rect4138" ry="1.1833" rx="1.0914" transform="rotate(45)" height="28.948" width="28.948" y="-14.474" x="19.467" fill="#fff"/>
 <path id="rect4762" style="color-rendering:auto;text-decoration-color:#000000;color:#000000;isolation:auto;mix-blend-mode:normal;shape-rendering:auto;solid-color:#000000;block-progression:tb;text-decoration-line:none;image-rendering:auto;white-space:normal;text-indent:0;text-transform:none;text-decoration-style:solid" fill="#31afe1" d="m23.98 4c-0.29 0.0117-0.584 0.1354-0.816 0.3672l-6.164 6.1638v16.934l15.467-15.467-7.696-7.6953c-0.213-0.2133-0.499-0.3139-0.789-0.3027a1.8185 1.8183 0 0 0 -0.002 0zm-11.98 11.531l-7.6328 7.633c-0.2297 0.23-0.3516 0.521-0.3652 0.809a1.8185 1.8183 0 0 0 0 0.015c-0.0096 0.288 0.089 0.572 0.3007 0.783l7.6953 7.696h0.002v-16.936zm24.002 0.002l-8.35 8.35 8.467 8.467 7.514-7.514c0.229-0.23 0.351-0.521 0.365-0.809a1.8185 1.8183 0 0 0 0 -0.015c0.01-0.288-0.089-0.572-0.301-0.783l-7.695-7.696zm-11.885 11.885l-8.584 8.584 7.696 7.695c0.213 0.214 0.499 0.314 0.789 0.303a1.8185 1.8183 0 0 0 0.002 0c0.29-0.012 0.584-0.135 0.816-0.367l7.748-7.748-8.467-8.467z"/>
 <path id="rect4149" opacity=".2" d="m23.98 4c-0.29 0.0117-0.584 0.1354-0.816 0.3672l-18.797 18.797c-0.3797 0.38-0.4501 0.92-0.2342 1.342 0.0598-0.121 0.132-0.24 0.2344-0.342l18.797-18.797c0.464-0.4633 1.18-0.4918 1.607-0.0643l18.926 18.926c0.077 0.077 0.123 0.172 0.17 0.265 0.211-0.428 0.163-0.932-0.17-1.265l-18.926-18.926c-0.213-0.214-0.5-0.3147-0.791-0.303z" fill="#fff"/>
 <path id="rect4159" opacity=".2" d="m43.867 24.494c-0.05974 0.12127-0.13201 0.23943-0.23438 0.3418l-18.797 18.797c-0.46352 0.46352-1.1799 0.49199-1.6074 0.06445l-18.926-18.926c-0.0774-0.077-0.1226-0.172-0.1702-0.265-0.2108 0.428-0.1632 0.932 0.1699 1.265l18.926 18.926c0.42754 0.42754 1.1439 0.39907 1.6074-0.06445l18.797-18.797c0.38-0.38 0.45-0.92 0.234-1.342z"/>
</svg>
